svg/lock.svg

<svg width="24" height="24" viewBox="0 0 24 24" fill="none" xmlns="http://www.w3.org/2000/svg">
<path d="M12 4C13.6477 4 15 5.35228 15 7V10H9V7C9 5.35228 10.3523 4 12 4ZM17 10V7C17 4.24772 14.7523 2 12 2C9.24771 2 7 4.24772 7 7V10H6C4.89543 10 4 10.8954 4 12V20C4 21.1046 4.89543 22 6 22H18C19.1046 22 20 21.1046 20 20V12C20 10.8954 19.1046 10 18 10H17ZM6 12H18V20H6V12Z" fill="#0D0D0D"/>
</svg>

<svg width="24" height="24" fill="none" xmlns="http://www.w3.org/2000/svg"><path d="M12 4c1.648 0 3 1.352 3 3v3H9V7c0-1.648 1.352-3 3-3zm5 6V7c0-2.752-2.248-5-5-5S7 4.248 7 7v3H6a2 2 0 00-2 2v8a2 2 0 002 2h12a2 2 0 002-2v-8a2 2 0 00-2-2h-1zM6 12h12v8H6v-8z" fill="#0D0D0D"/></svg>
